X:1
T:If I Gained the World
T:Swedish Melody
T:If I Gained the World
T:Public Domain
T:Public Domain
T:Public Domain
C:Swedish Melody
Z:Public Domain
%%score ( 1 2 ) ( 3 4 )
L:1/8
M:3/4
K:Eb
V:1 treble 
V:2 treble 
V:3 bass 
V:4 bass 
V:1
 [EB]>[EB] | [Ec][EB] [B,G]>B, [B,E][B,F] | [B,E]2 [B,D]2 [DB]>[DB] | [Dc][DB] [DA]>B, [B,C][B,D] | %4
w: 1.~If I|gained the world, but lost the|ior, Were my life|worth liv- ing for a day?|
w: 2.~Had I|wealth and love in full- est|sure, And a name|re- vered both far and near,|
w: 3.~O what|emp- ti- ness!— with- out the|ior ’Mid the sins|and sor- rows here be- low!|
w: 4.~O the|joy of hav- ing all in|sus! What a balm|the brok- en heart to heal!|
 (G>G B2) [EB]>[EB] | [Ec][EB] [B,G]>B, [B,E][B,F] | [B,E]2 [B,D]2 [DB]>[DB] | %7
w: my * * yearn- ing|find rest and com- fort In|things that soon must|
w: no * * hope be-|no har- bor wait- ing, Where|storm- tossed vess- el|
w: e- * * ter- ni-|how dark with- out Him! On-|night and tears and|
w: a * * sin so|but He’ll for- give it, Nor|sor- row that He|
 [Dc][DB] [DA]>B, [B,C][B,D] | [B,E]4 [Ee]>[Ee] | [Ed][Ec] [EA]>[Ee] [Ed][Ec] | %10
w: pass a- way? If I gained|world, but lost|the Sav- ior, Would my gain|
w: I could steer; If I gained|world, but lost|the Sav- ior, Who en- dured|
w: end- less woe! What, though I|live with- out|the Sav- ior, When I come|
w: does not feel! If I have|Jes- us, on-|ly Jes- us, No- thing else|
 (cB) [EG]2 [EB]>[EB] | [Ec][EB] [DA]>B, [B,D][DF] | (E>G B2) [Ee]>[Ee] | %13
w: be * worth the life-|strife? Are all earth- ly plea-|worth * * com- par-|
w: the * cross and died|me, Could then all the world|ford * * a ref-|
w: to * die, how would|be? O to face the val-|gloom * * with- out|
w: in * all the world|side— O then ev- ery- thing|mine * * in Je-|
 [Ed][Ec] [EA]>[Ee] [Ed][Ec] | (cB) [EG]2 [EB]>[EB] | [Ec][EB] [DA]>B, [B,D][B,F] | [B,E]4 |] %17
w: For a mo- ment with a|Christ- * filled life? *|||
w: Whi- ther, in my an- guish,|I * might flee? *|||
w: And with- out Him all e-|ter- * ni- ty! *|||
w: For my needs and more He|will * pro- vide. *|||
V:2
 x2 | x7/2 B,/ x2 | x6 | x7/2 B,/ x2 | B,4 x2 | x7/2 B,/ x2 | x6 | x7/2 B,/ x2 | x6 | x6 | E2 x4 | %11
w: |Sav-||Could|heart|the||the|||long|
w: |mea-||Yet|yond,|my||the|||for|
w: |Sav-||And|ty,|ly||might|||it|
w: |Je-||Ne’er|great,|a||but|||be-|
 x7/2 B,/ x2 | E4 x2 | x6 | E2 x4 | x7/2 B,/ x2 | x4 |] %17
w: sures|ing|||||
w: af-|uge,|||||
w: ley’s|Him!|||||
w: is|sus;|||||
V:3
 [E,G,]>[E,G,] | [E,A,][E,G,] [E,B,]>[E,G,] [E,G,][E,A,] | [B,,G,]2 [B,,F,]2 [B,,F,]>[B,,F,] | %3
 [B,,A,][B,,G,] [B,,F,]>[D,F,] [C,F,][B,,F,] | [E,G,]4 [E,G,]>[E,G,] | %5
 [E,A,][E,G,] [E,B,]>[E,G,] [E,G,][E,A,] | [B,,G,]2 [B,,F,]2 [B,,F,]>[B,,F,] | %7
 [B,,A,][B,,G,] [B,,F,]>[B,,D,] [B,,E,][B,,F,] | [E,G,]4 [E,G,]>[E,G,] | %9
 [A,,A,][A,,A,] [C,A,]>[C,A,] [B,,A,][A,,A,] | (A,G, [E,B,]2) [G,B,]>[G,B,] | %11
 A,[G,B,] [F,B,]>[F,A,] [B,,A,][B,,A,] | [E,G,]4 [E,G,]>[E,G,] | %13
 [A,,A,][A,,A,] [C,A,]>[C,A,] [B,,A,][A,,A,] | (A,G,) [E,B,]2 [G,B,]>[G,B,] | %15
 A,[G,B,] [G,B,]>[F,A,] [B,,A,][B,,A,] | [E,G,]4 |] %17
V:4
 x2 | x6 | x6 | x6 | x6 | x6 | x6 | x6 | x6 | x6 | E,2 x4 | A, x5 | x6 | x6 | E,2 x4 | A, x5 | %16
 x4 |] %17

